toolkits/global/packages/global-context/img/icons/print.svg

<svg height="24" viewBox="0 0 24 24" width="24" xmlns="http://www.w3.org/2000/svg"><path d="m19.0049107 8h-14.00982141c-.54941618 0-.99508929.4467783-.99508929.99961498v6.00077002c0 .5570958.44271433.999615.99508929.999615h1.00491071v-3h12v3h1.0049107c.5494162 0 .9950893-.4467783.9950893-.999615v-6.00077002c0-.55709576-.4427143-.99961498-.9950893-.99961498zm-2.0049107-1v-2.00208688c0-.54777062-.4519464-.99791312-1.0085302-.99791312h-7.9829396c-.55661731 0-1.0085302.44910695-1.0085302.99791312v2.00208688zm1 10v2.0018986c0 1.103521-.9019504 1.9981014-2.0085302 1.9981014h-7.9829396c-1.1092806 0-2.0085302-.8867064-2.0085302-1.9981014v-2.0018986h-1.00491071c-1.10185739 0-1.99508929-.8874333-1.99508929-1.999615v-6.00077002c0-1.10435686.8926228-1.99961498 1.99508929-1.99961498h1.00491071v-2.00208688c0-1.10341695.90195036-1.99791312 2.0085302-1.99791312h7.9829396c1.1092806 0 2.0085302.89826062 2.0085302 1.99791312v2.00208688h1.0049107c1.1018574 0 1.9950893.88743329 1.9950893 1.99961498v6.00077002c0 1.1043569-.8926228 1.999615-1.9950893 1.999615zm-1-3h-10v5.0018986c0 .5546075.44702548.9981014 1.0085302.9981014h7.9829396c.5565964 0 1.0085302-.4491701 1.0085302-.9981014zm-9 1h8v1h-8zm0 2h5v1h-5zm9-5c-.5522847 0-1-.4477153-1-1s.4477153-1 1-1 1 .4477153 1 1-.4477153 1-1 1z" fill="#666" fill-rule="evenodd"/></svg>

<?xml version="1.0" encoding="UTF-8"?>
<svg width="24px" height="24px" viewBox="0 0 24 24" version="1.1" xmlns="http://www.w3.org/2000/svg" xmlns:xlink="http://www.w3.org/1999/xlink">
    <!-- Generator: Sketch 63.1 (92452) - https://sketch.com -->
    <title>icon-icon / print</title>
    <desc>Created with Sketch.</desc>
    <g id="icon-/-print" stroke="none" stroke-width="1" fill="none" fill-rule="evenodd">
        <path d="M19.0049107,8 L4.99508929,8 C4.44567311,8 4,8.4467783 4,8.99961498 L4,15.000385 C4,15.5574808 4.44271433,16 4.99508929,16 L6,16 L6,13 L18,13 L18,16 L19.0049107,16 C19.5543269,16 20,15.5532217 20,15.000385 L20,8.99961498 C20,8.44251922 19.5572857,8 19.0049107,8 Z M17,7 L17,4.99791312 C17,4.4501425 16.5480536,4 15.9914698,4 L8.0085302,4 C7.45191289,4 7,4.44910695 7,4.99791312 L7,7 L17,7 Z M18,17 L18,19.0018986 C18,20.1054196 17.0980496,21 15.9914698,21 L8.0085302,21 C6.8992496,21 6,20.1132936 6,19.0018986 L6,17 L4.99508929,17 C3.8932319,17 3,16.1125667 3,15.000385 L3,8.99961498 C3,7.89525812 3.8926228,7 4.99508929,7 L6,7 L6,4.99791312 C6,3.89449617 6.90195036,3 8.0085302,3 L15.9914698,3 C17.1007504,3 18,3.89826062 18,4.99791312 L18,7 L19.0049107,7 C20.1067681,7 21,7.88743329 21,8.99961498 L21,15.000385 C21,16.1047419 20.1073772,17 19.0049107,17 L18,17 Z M17,14 L7,14 L7,19.0018986 C7,19.5565061 7.44702548,20 8.0085302,20 L15.9914698,20 C16.5480662,20 17,19.5508299 17,19.0018986 L17,14 Z M8,15 L16,15 L16,16 L8,16 L8,15 Z M8,17 L13,17 L13,18 L8,18 L8,17 Z M17,12 C16.4477153,12 16,11.5522847 16,11 C16,10.4477153 16.4477153,10 17,10 C17.5522847,10 18,10.4477153 18,11 C18,11.5522847 17.5522847,12 17,12 Z" id="print" fill="#666666"></path>
    </g>
</svg>
